img/decor/features-3-icon-eco.svg

<svg width="49" height="49" viewBox="0 0 49 49" fill="none" xmlns="http://www.w3.org/2000/svg">
<circle cx="24.5" cy="24.5" r="23.5" stroke="#323232" stroke-width="2"/>
<path d="M31.9923 26.5968C31.6436 18.9394 24.8652 11.5239 24.5631 11.2015C24.5631 11.2015 24.5631 11.2015 24.5244 11.2015L24.4314 11.0967L24.3307 11.0322H23.8969L23.7497 11H23.7109L23.5715 11.0967L23.4863 11.1693C23.4863 11.1693 23.4863 11.1693 23.4475 11.1693C23.1454 11.5239 16.367 18.9475 16.0029 26.5968C15.999 26.6531 15.999 26.7097 16.0029 26.766C16.0029 27.0562 16.0029 27.3464 16.0029 27.6446C16.2973 35.9468 23.7497 37.978 23.8116 37.9941H24.0053C24.0697 38.002 24.1347 38.002 24.199 37.9941C24.2687 37.9941 31.7134 35.9065 32 27.6446C32 27.3464 32 27.0562 32 26.766C32 26.7096 31.9923 26.6532 31.9923 26.5968ZM18.048 23.7676C19.5954 25.1514 21.3449 26.2697 23.2306 27.0804V30.7478C21.3327 29.7725 18.4121 28.0396 17.5522 26.5162C17.622 25.586 17.7803 24.6653 18.0248 23.7676H18.048ZM19.5974 19.6568C20.6106 20.758 21.8538 21.6019 23.2306 22.1233V25.2991C21.4997 24.5389 19.9227 23.445 18.5826 22.0749C18.8773 21.2498 19.2161 20.4425 19.5974 19.6568ZM29.4436 22.0749C28.1041 23.4457 26.5268 24.5398 24.7955 25.2991V22.1233C26.1612 21.5976 27.3934 20.7539 28.3977 19.6568C28.7885 20.4313 29.1377 21.2278 29.4436 22.0427V22.0749ZM24.7955 20.4145V13.9662C25.8308 15.2873 26.7757 16.6825 27.6231 18.1415C26.8759 19.1299 25.8968 19.9015 24.78 20.3822L24.7955 20.4145ZM24.7955 30.764V27.0804C26.6884 26.2769 28.4458 25.164 30.0013 23.7837C30.2386 24.6848 30.3891 25.6082 30.4506 26.5403C29.5985 28.0396 26.678 29.7645 24.78 30.7317L24.7955 30.764ZM23.2461 20.4145C22.1242 19.9276 21.1441 19.1441 20.4031 18.1415C21.2489 16.6687 22.1938 15.26 23.2306 13.9259L23.2461 20.4145ZM17.7149 29.0632C19.4092 30.4484 21.2619 31.6099 23.2306 32.5211V36.0677C21.8222 35.4723 20.5796 34.5193 19.6161 33.2958C18.6526 32.0722 17.999 30.6171 17.7149 29.0632ZM24.78 36.0757V32.5131C26.7504 31.6084 28.6035 30.4493 30.2957 29.0632C30.0237 30.623 29.3747 32.0851 28.4097 33.3119C27.4448 34.5387 26.1957 35.4898 24.78 36.0757Z" fill="#323232"/>
</svg>

<svg width="49" height="49" fill="none" xmlns="http://www.w3.org/2000/svg"><circle cx="24.5" cy="24.5" r="23.5" stroke="#323232" stroke-width="2"/><path d="M32 26.6c-.36-7.66-7.13-15.08-7.44-15.4h-.04l-.09-.1-.1-.07h-.43l-.15-.03h-.04l-.14.1-.08.07h-.04c-.3.35-7.08 7.78-7.45 15.43v1.04c.3 8.3 7.75 10.34 7.81 10.35h.2a.8.8 0 00.19 0c.07 0 7.51-2.08 7.8-10.35v-.87-.17zm-13.95-2.83c1.55 1.38 3.3 2.5 5.18 3.31v3.67c-1.9-.98-4.82-2.71-5.68-4.23.07-.93.23-1.85.47-2.75h.03zm1.55-4.11a9.53 9.53 0 003.63 2.46v3.18a14.87 14.87 0 01-4.65-3.23c.3-.82.64-1.63 1.02-2.41zm9.84 2.41a14.83 14.83 0 01-4.64 3.23v-3.18a9.53 9.53 0 003.6-2.46c.39.77.74 1.57 1.04 2.38v.03zm-4.64-1.66v-6.44a36.44 36.44 0 012.82 4.17 7.08 7.08 0 01-2.84 2.24l.02.03zm0 10.35v-3.68c1.89-.8 3.65-1.92 5.2-3.3.24.9.39 1.83.45 2.76-.85 1.5-3.77 3.22-5.67 4.2l.02.02zm-1.55-10.35a7.01 7.01 0 01-2.85-2.27c.85-1.47 1.8-2.88 2.83-4.21l.02 6.48zm-5.54 8.65a25.91 25.91 0 005.52 3.46v3.55a9.14 9.14 0 01-3.61-2.77 9.65 9.65 0 01-1.9-4.24zm7.07 7.02V32.5a25.5 25.5 0 005.52-3.45 9.52 9.52 0 01-1.89 4.25 9 9 0 01-3.63 2.77z" fill="#323232"/></svg>
